X: 1
T: Morsiusmarssi
T: Wedding march
C: Konsta Jylh\"a
Z: John Chambers <jc@trillian.mit.edu>
M: 2/4
L: 1/16
K: D
A2 \
| "D"F3E DFFA | fgfe d2c2 | "G"dedc B2A2 | "Em"G3F E4 \
| "A7"A2Ac e2f2 | g3f e4 | {efg}a2c2 cBA2 | "D"f2d2 dcd2 |
| "D"F3E DFFA | fgfe d2c2 | "G"dedc B2AB | "Em"B3A G4 \
| "A7"efgf e2e2 | "D"abag fedf | "A7"efed c2A2 | "D"d6 |]
K: Dm
A2 \
| "Dm"d6 f2 | "A7"^c6 e2 | "Dm"d2A2 F2A2 | "A7"E2A2 "Dm"D2F2 \
| "A7"A,6 ^C2 | E2G2 F2E2 | "Dm"FED2 "Gm"GFE2 | "A7"A6 A2 |
| "Dm"A6 (3ded | "A7"^c2d2 e2f2 | "Gm"g6 (3fgf | "A7"e2d2 ^c2_B2 \
| A2^c2 e2g2 | a2g2 f2e2 | "Dm"d2f2 "A7"A2^c2 | "Dm"d6 |]
